X:134
T:Little Bonny Boy - Knapman
%%VWML:SBG-1-2-693-0
F:http://www.vwml.org/record/SBG/1/2/693
Z:Original Sibelius transcriptions by M. & S. Graebe
L:1/8
M:2/4
I:linebreak $
K:G
V:1 treble nm="P1"
V:2 treble 
V:1
 D | B2 A2 | d2 AF | A2 G2 | D3 | B/ B/ | d2 A2 | c2 FA | G2 z | d | e2 A2 | c2 dc | B2 G2 |$ B3 | %14
 A | d2 A2 | !fermata!c3 B/A/ | G2 z | d | (e2 (c2) | c2) z B | (d2 (B2) | B2) z A | G2 c2 | %24
 B3 A/F/ | G3 x | %26
V:2
 x | x4 | B2 x x | x x x2 | x3 | x | x4 | x4 | x3 | x | x4 | x4 | x4 |$ x3 | x | x4 | x4 | x3 | x | %19
 x4 | x4 | x4 | x4 | x4 | x4 | x4 | %26
T:Little Bonny Boy - Doige
F:http://www.vwml.org/record/SBG/1/2/693
Z:Original Sibelius transcriptions by M. & S. Graebe
M:6/8
I:linebreak $
K:F
V:1 treble nm="P1"
V:1
 F2 | AGF f2 f/d/ | cGA F2 F | AGA BAB | c3 ccd | _ecd ede |$ f2 e dcd | c3 c AB | cfd cBG/A/ | %9
 F3 !turn!G/4A/4B/4c/4 c AB | cf(3d/c/d/ cGA | F6 | %12
T:Little Bonny Boy - Fone
F:http://www.vwml.org/record/SBG/1/2/693
Z:Original Sibelius transcriptions by M. & S. Graebe
M:6/8
I:linebreak $
K:F
V:1 treble nm="P1"
V:1
 z DE FED | d>^cd AGE | D2 DE | (FE)D GFG |$ (A3 A2) A | =cAB c2 A | dBA/G/ A AG | AdA AG(3E/F/E/ | %8
 D3 x3 | %9
